X:1
T:Title
%%score { ( 1 3 ) | ( 2 4 ) }
L:1/8
M:2/4
K:Bb
V:1 treble nm="Grand Piano"
V:3 treble 
V:2 bass 
V:4 bass 
V:1
 z2 z[Q:1/4=84] [DF] | [DF][DB] [Fd]>[Fd] | [Ge][Ge] [Ge]>[Fd] | cc d>c |[M:3/8] [DB]3 | %5
[M:1/8] [DB] |[M:2/4] B>B BB | [GB][^FA] [FA][FA] | G>G [GB][EG] | [DF]4 | B4 | c4 | dd/d/ de | %13
 f>e dd | [Gc][Gd] [Ge][Gc] | B2 A2 | B4 | c4 | z2 z d | e2 [B=e]>[Be] | [Bf]>[Bf] [Fd][Ec] | %21
[M:3/8] [DB]3 |] %22
V:2
 z2 z [B,,B,] | [B,,B,][B,,B,] [B,,B,]>[B,,B,] | [E,B,][E,B,] [E,B,]>[B,,B,] | %3
 [F,A,F][F,A,F] [F,B,F]>[F,A,E] |[M:3/8] [B,,B,]3 |[M:1/8] [B,,B,] | %6
[M:2/4][K:treble] [G,B,D]>[G,DG] [G,DG][G,DG] | [D,D][D,D] [D,D][D,D] | %8
 [E,B,]>[E,B,E] [E,B,][E,B,] | [B,,B,]4 | [B,,F,][B,,F,]/[B,,F,]/ [B,,F,][B,,F,] | %11
 [F,A,F][F,A,]/[F,A,]/ [F,A,][F,A,] | [B,F][B,F]/[B,F]/ [B,F][B,CF] | D2 z2 | %14
 [E,B,][D,=B,] [C,C][E,C] | D2 z2 | [B,,F,][B,,F,]/[B,,F,]/ [B,,F,][B,,F,] | %17
 [F,A,F][F,A,]/[F,A,]/ [F,A,][F,A,] | [B,F][B,F]/[B,F]/ [F,A,F][B,F] | %19
 [G,B,G]2[K:bass] [G,_D]>[G,D] | [F,D]>[F,D] [F,B,][F,A,] |[M:3/8] [B,,B,]3 |] %22
V:3
 x4 | x4 | x4 | x4 |[M:3/8] x3 |[M:1/8] x |[M:2/4] x4 | x4 | x4 | x4 | DD/D/ DD | z F/F/ FF | x4 | %13
 x4 | x4 | x4 | DD/D/ DD | z F/F/ FF | dd/d/ .c>_A, | x4 | x4 |[M:3/8] x3 |] %22
V:4
 x4 | x4 | x4 | x4 |[M:3/8] x3 |[M:1/8] x |[M:2/4][K:treble] x4 | x4 | x4 | x4 | x4 | x4 | x4 | %13
 [B,F]->[B,CF] [B,F][B,F] | x4 | [F,F]2- [F,CF]2 | x4 | x4 | x4 | x2[K:bass] x2 | x4 |[M:3/8] x3 |] %22

